X: 3
T:Banks of the Dee, Ascott
M:6/8
L:1/8
Q:240
A:Ascott
P:A(AB)5
K:G
P:A
|:G|DEF GAB|ced cBA|dBG Ddc|BcA G2:|
P:B
|:G/A/|Bcd c2g|ede dBG|Bcd efg|GAG FED|
cec BdB|GFG AFD|GFE Ddc|BcA G2:|
